svgs/thin/folder.svg

<svg xmlns="http://www.w3.org/2000/svg" viewBox="0 0 512 512"><!-- Font Awesome Pro 6.0.0-alpha2 by @fontawesome - https://fontawesome.com License - https://fontawesome.com/license (Commercial License) --><path d="M464 96H272L217.373 41.373C211.371 35.371 203.232 32 194.745 32H48C21.49 32 0 53.49 0 80V432C0 458.51 21.49 480 48 480H464C490.51 480 512 458.51 512 432V144C512 117.49 490.51 96 464 96ZM496 432C496 449.673 481.673 464 464 464H48C30.327 464 16 449.673 16 432V80C16 62.327 30.327 48 48 48H188.117C196.603 48 204.742 51.371 210.744 57.372L265.371 112H464C481.673 112 496 126.327 496 144V432ZM440 176H72C67.594 176 64 179.594 64 184S67.594 192 72 192H440C444.406 192 448 188.406 448 184S444.406 176 440 176Z"/></svg>

<svg xmlns="http://www.w3.org/2000/svg" viewBox="0 0 512 512"><!--! Font Awesome Pro 6.0.0-alpha3 by @fontawesome - https://fontawesome.com License - https://fontawesome.com/license (Commercial License) --><path d="M464 96h-192L217.4 41.37C211.4 35.37 203.2 32 194.7 32H48C21.49 32 0 53.49 0 80v352C0 458.5 21.49 480 48 480h416c26.51 0 48-21.49 48-48v-288C512 117.5 490.5 96 464 96zM496 432c0 17.67-14.33 32-32 32h-416c-17.67 0-32-14.33-32-32v-352c0-17.67 14.33-32 32-32h140.1c8.487 0 16.63 3.371 22.63 9.372L265.4 112H464c17.67 0 32 14.33 32 32V432zM440 176H72C67.59 176 64 179.6 64 184S67.59 192 72 192h368C444.4 192 448 188.4 448 184S444.4 176 440 176z"/></svg>
